dressly/src/assets/brand/berluti.svg

<svg width="167" height="111" viewBox="0 0 167 111" fill="none" xmlns="http://www.w3.org/2000/svg">
<path d="M57.132 65.0709H46.626V57.5129H55.2368V53.4051H46.626V45.9703H57.0496V41.5751H43.2476L41.5172 43.2592V59.238L41.2288 69.4251H57.132V65.0709ZM87.9495 43.2592L86.2193 41.5751H82.5112L82.8409 51.721V59.238L82.5112 69.4251H98.4557V65.0708H87.9496L87.9495 43.2592ZM111.887 41.5751V62.9349C111.763 64.2905 110.775 65.112 109.209 65.112C107.561 65.112 106.49 64.1672 106.49 62.6474V41.5751H101.051L101.381 51.721V62.401C101.381 66.7961 104.306 69.4251 109.209 69.4251C114.112 69.4251 116.996 66.7961 116.996 62.4009V43.2593L115.306 41.5751H111.887ZM144.023 41.5751L142.334 43.2592V69.425H147.401V51.7211L147.731 41.5751H144.023ZM121.816 45.9703H127.09V67.7409L128.779 69.4251H132.487L132.157 59.2791V47.2026C132.157 46.8758 132.287 46.5623 132.519 46.3312C132.751 46.1001 133.065 45.9703 133.393 45.9703H137.431V41.5751H121.816V45.9703ZM73.7769 58.129C76.7021 56.6913 78.3088 53.857 78.3088 50.1601C78.3088 44.6147 75.26 41.5751 69.7393 41.5751H63.8476L62.1173 43.2592V59.238L61.7877 69.4251H67.1849V58.663H67.9677L74.0241 69.4251H78.9268V67.7408L73.6533 58.17L73.7769 58.129ZM68.7916 54.432H67.1849V45.9703H68.7916C71.6756 45.9703 73.1176 47.3669 73.1176 50.2012C73.1176 53.0354 71.6756 54.432 68.7916 54.432ZM32.2061 55.1714L31.7117 54.966L32.1237 54.7607C34.1837 53.6105 35.1725 51.8032 35.1725 49.1332C35.1724 44.2451 32.2883 41.5751 27.0148 41.5751H19.2692L19.5988 51.721V67.6998L21.288 69.384H28.1685C33.442 69.384 36.326 66.6318 36.326 61.6615C36.326 57.4717 33.9777 55.9519 32.2061 55.1714ZM23.9248 45.9703H26.8088C28.292 45.9703 30.0636 46.9562 30.0636 49.6673C30.0636 52.3783 28.3332 53.4052 26.8088 53.4052H23.9248V45.9703ZM27.8388 65.071H23.8836V58.8684C23.8836 58.5416 24.0139 58.2282 24.2456 57.9971C24.4774 57.766 24.7918 57.6361 25.1196 57.6361H27.8388C29.322 57.6361 31.0936 58.6219 31.0936 61.333C31.0936 64.044 29.3632 65.071 27.8388 65.071Z" fill="#BDBDBD"/>
</svg>

<svg xmlns="http://www.w3.org/2000/svg" width="167" height="111" fill="none"><path fill="#BDBDBD" d="M57.132 65.07H46.626v-7.557h8.61v-4.108h-8.61V45.97H57.05v-4.395H43.248l-1.73 1.684v15.979l-.29 10.187h15.904zM87.95 43.26l-1.73-1.685h-3.71l.33 10.146v7.517l-.33 10.187h15.945v-4.354H87.95zm23.937-1.685v21.36c-.124 1.355-1.112 2.177-2.678 2.177-1.648 0-2.719-.945-2.719-2.465V41.575h-5.439l.33 10.146v10.68c0 4.395 2.925 7.024 7.828 7.024s7.787-2.629 7.787-7.024V43.259l-1.69-1.684zm32.136 0-1.689 1.684v26.166h5.067V51.721l.33-10.146zm-22.207 4.395h5.274v21.77l1.689 1.685h3.708l-.33-10.146V47.203a1.24 1.24 0 0 1 1.236-1.232h4.038v-4.396h-15.615zm-48.04 12.16c2.926-1.438 4.533-4.272 4.533-7.969 0-5.545-3.049-8.585-8.57-8.585h-5.891l-1.73 1.684v15.979l-.33 10.187h5.397V58.663h.783l6.056 10.762h4.903v-1.684l-5.274-9.571zm-4.984-3.697h-1.607V45.97h1.607c2.884 0 4.326 1.397 4.326 4.231s-1.442 4.231-4.326 4.231m-36.586.74-.494-.206.412-.205c2.06-1.15 3.048-2.958 3.048-5.628 0-4.888-2.884-7.558-8.157-7.558h-7.746l.33 10.146V67.7l1.689 1.684h6.88c5.274 0 8.158-2.752 8.158-7.723 0-4.19-2.348-5.71-4.12-6.49m-8.281-9.202h2.884c1.483 0 3.255.986 3.255 3.697s-1.73 3.738-3.255 3.738h-2.884zm3.914 19.101h-3.955v-6.203a1.23 1.23 0 0 1 1.236-1.232h2.719c1.483 0 3.255.986 3.255 3.697s-1.73 3.738-3.255 3.738"/></svg>
